app/dist/common/images/delta-air-lines.svg

<svg height="18" width="18" xmlns="http://www.w3.org/2000/svg"><path d="m0 0h18v18h-18z" fill="#081135"/><path d="m13.632 11.143-4.632-2.233v-4.91zm.368.857-5-2.119v2.119z" fill="#98002e"/><path d="m4.368 11.143 4.632-7.143v4.91zm-.368.857h5v-2.119l-5 2.12z" fill="#e31837"/></svg>

<!-- by TradingView --><svg width="18" height="18" xmlns="http://www.w3.org/2000/svg"><path fill="#081135" d="M0 0h18v18H0z"/><path d="M13.632 11.143L9 8.91V4l4.632 7.143zM14 12L9 9.881V12h5z" fill="#98002E"/><path d="M4.368 11.143L9 4v4.91l-4.632 2.233zM4 12h5V9.881l-5 2.12z" fill="#E31837"/></svg>
